src/icons/svgs/24/eye-slash.svg

<svg width="24" height="24" viewBox="0 0 24 24" fill="none" xmlns="http://www.w3.org/2000/svg">
<path d="M22.689 19.5206L19.1303 16.6641C20.2083 15.5392 21.1174 14.1714 21.7851 12.6457C21.8506 12.4897 21.9044 12.2207 21.9044 12.046C21.9044 11.8707 21.8507 11.6023 21.7851 11.4462C19.9198 7.10039 16.2287 4.18789 12.0029 4.18789C9.84807 4.18789 7.83559 4.96092 6.13016 6.28756L2.33419 3.18017C2.1829 3.05913 2.00341 3 1.82599 3C1.58118 3 1.33805 3.11122 1.17583 3.32361C0.894297 3.69129 0.956807 4.22272 1.31571 4.51045L21.64 20.8197C22.001 21.1086 22.5192 21.0428 22.7983 20.6763C23.112 20.3411 23.0466 19.8094 22.689 19.5206ZM14.5607 12.9948L11.7533 10.7725C11.8685 10.4415 11.9716 10.121 11.9716 9.76178C11.9716 9.56879 11.9416 9.38389 11.8966 9.20605C11.9544 9.20534 11.9785 9.1983 12.0026 9.1983C13.5192 9.1983 14.7533 10.4623 14.7533 12.0175C14.7533 12.3644 14.6742 12.6884 14.5607 12.9948ZM15.8948 14.0654C16.2111 13.4526 16.4037 12.7623 16.4037 12.0192C16.4037 9.52934 14.4335 7.50785 12.0026 7.50785C10.8954 7.50785 9.89484 7.93751 9.12464 8.63129L7.47422 7.30711C8.83925 6.34673 10.39 5.81741 12.0026 5.81741C15.4231 5.81741 18.5767 8.1946 20.2409 11.984C19.6199 13.4061 18.7827 14.6053 17.8131 15.5727L15.8948 14.0654ZM12.0026 16.5236C12.464 16.5236 12.902 16.4305 13.3198 16.2955L11.4112 14.7627C10.5963 14.5795 9.92234 14.0196 9.55444 13.273L7.62895 11.7269C7.62207 11.8255 7.60144 11.9171 7.60144 12.0157C7.60144 14.5056 9.57163 16.5236 12.0026 16.5236ZM12.0026 18.214C8.58206 18.214 5.42838 15.8368 3.76421 12.0474C4.13658 11.1944 4.59251 10.4263 5.09864 9.72797L3.79447 8.6489C3.18347 9.48497 2.65052 10.4112 2.21935 11.4167C2.15367 11.572 2.06909 11.8396 2.06909 12.0157C2.06909 12.191 2.1228 12.4594 2.18837 12.6155C4.05369 16.9613 7.74478 19.8738 11.9706 19.8738C13.5336 19.8738 15.0228 19.4692 16.3751 18.7419L14.9011 17.559C13.9968 17.9816 13.0169 18.214 12.0026 18.214Z" fill="black"/>
</svg>

<svg width="24" height="24" viewBox="0 0 24 24" xmlns="http://www.w3.org/2000/svg">
    <path d="m22.689 19.52-3.559-2.856a13.829 13.829 0 0 0 2.655-4.018c.066-.156.12-.425.12-.6s-.054-.444-.12-.6C19.92 7.1 16.23 4.188 12.003 4.188c-2.155 0-4.167.773-5.873 2.1L2.334 3.18a.812.812 0 0 0-1.158.144.859.859 0 0 0 .14 1.186L21.64 20.82a.811.811 0 0 0 1.158-.144c.314-.335.249-.867-.109-1.155zm-8.128-6.525-2.808-2.222c.115-.332.219-.652.219-1.011 0-.193-.03-.378-.075-.556.057 0 .082-.008.106-.008 1.516 0 2.75 1.264 2.75 2.82 0 .346-.079.67-.192.977zm1.334 1.07a4.441 4.441 0 0 0 .509-2.046c0-2.49-1.97-4.511-4.401-4.511-1.108 0-2.108.43-2.878 1.123l-1.65-1.324c1.364-.96 2.915-1.49 4.528-1.49 3.42 0 6.574 2.378 8.238 6.167a11.604 11.604 0 0 1-2.428 3.589l-1.918-1.508zm-3.892 2.459a4.27 4.27 0 0 0 1.317-.229l-1.909-1.532a2.761 2.761 0 0 1-1.857-1.49L7.63 11.727c-.007.098-.028.19-.028.289 0 2.49 1.97 4.508 4.402 4.508zm0 1.69c-3.42 0-6.575-2.377-8.239-6.167.373-.853.829-1.62 1.335-2.319l-1.305-1.08a14.123 14.123 0 0 0-1.575 2.769c-.065.155-.15.423-.15.599 0 .175.054.443.12.6 1.865 4.345 5.556 7.258 9.782 7.258 1.563 0 3.052-.405 4.404-1.132l-1.474-1.183a6.826 6.826 0 0 1-2.898.655z"/>
</svg>
